X: 1
T: King Oscar II's
M: 3/4
L: 1/8
R: waltz
K: Dmaj
A2 |: &quot;D&quot; f2>A2f2 | d2>A2d2 | &quot;G&quot; B2>G2 BG | E4d2 |[1 &quot;A7&quot; c2E2F2 | G2>F2 GB |
&quot;D&quot; A2D2E2 | F4A2 :|[2 &quot;A7&quot; c2>B2A2 | A2B2c2 | &quot;D&quot; d2>d2d2 | d4A2 |
|:&quot;D&quot; f2F2A2 | d2f2a2 | &quot;A7&quot; g2A2>c2 | e6 | 1 g2A2c2 | e2>f2e2 |
&quot;D&quot; d2F2A2 | d4A2 :| 2 gf ed cB | A2f2>e2 | &quot;D&quot; d2F2A2 | D4A2 |
|: &quot;D&quot; f2>A2f2 | d2>A2d2 | &quot;G&quot; B2>G2 BG | E4d2 | 1 &quot;A7&quot; c2E2F2 | G2>F2 GB |
&quot;D&quot; A2D2E2 | F4A2 :| 2 &quot;A7&quot; c2>B2A2 |A2B2c2 | &quot;D&quot; d2>d2d2 | d4 A2 |
|: &quot;G&quot; B2>B2B2 | B2c2d2 | &quot;D&quot; A2>A2A2 | F2A2d2 | &quot;A7&quot;c2>c2c2 | A2c2e2 |
&quot;D&quot; d2>d2d2 | d2c2=c2 | &quot;G&quot; B2>B2B2 | B2c2d2 | &quot;D&quot; A2>A2A2 | F2A2d2 |
&quot;A7&quot; c2>B2A2 | A2B2c2 |1 &quot;D&quot;d2>d2d2 | d2z2A2 :|2 &quot;D&quot;d6- | d2z2  |]
